!!!!SEGMENT: pl-cz--iii-453--001-007_maader-ludwik--rorate-caeli-amen.krn
!!!cenid: 17xx:986
!!!COM: Maader, Ludwik
!!!COM-rismID: pe30020328
!!!CDT: <1794->1798
!!!CNT:
!!!OPR: Rorate caeli
!!!OTL: Amen
!!!OMV: 007
!!!PDT: 1784
!!!AGN: Sacred
!!!SMS-siglum: PL-CZ
!!!SMS-shelfmark: III-453
!!!SMS-shelfwork: 001-007 M
!!!SMS-variant:
!!!SMS-altvar:
!!!NIFC-rismSourceID: 300000768
!!!NIFC-rismChildID: 300000768
!!!NIFC-islandoraID: pl-cz:38496
!!!URL-pdf-islandora: https://repozytorium.nifc.pl/islandora/object/pl-cz%3A38496/datastream/PDF/view
!!!URL-scan: https://polish.musicsources.pl/pl/lokalizacje/galeria/rekopisy/6932/1 @EN{Scan on Polish Music Sources Website} @PL{Skany w portalu Dziedzictwo Muzyki Polskiej w otwartym dostępie}
!!!ONB-nifc: UWAGA: części Rorate caeli: Rorate, Mittit ad virginem, Zdrowaś bądź Maria, Super bientium, Łaskiś pełna pańskiej, Qui nobis tribuat, Amen
!!!AIN: 1 alto 1 bass 2 oboe 1 organ 1 soprn 1 tenor 1 timpa 2 tromp 1 violn
!!!key: G
**kern	**fba	**dynam	**kern	**kern	**kern	**text	**kern	**text	**kern	**text	**kern	**text	**kern	**kern	**kern	**kern	**kern
*group6	*	*	*group5	*group5	*group4	*	*group4	*	*group4	*	*group4	*	*group3	*group2	*group2	*group1	*group1
*part12	*part 12	*part12	*part11	*part10	*part9	*part9	*part8	*part8	*part7	*part7	*part6	*part6	*part5	*part4	*part3	*part2	*part1
*staff12	*	*	*staff11	*staff10	*staff9	*staff9	*staff8	*staff8	*staff7	*staff7	*staff6	*staff6	*staff5	*staff4	*staff3	*staff2	*staff1
*I"Organo.	*	*	*I"Violino Secondo	*I"Violino Primo.	*I"Baſso.	*	*I"Tenore	*	*I"Alto.	*	*I"Canto.	*	*I"Tympano in D.A.	*I"Clarino IIdo ex D#.	*I"Clarino Imo. ex D.#	*I"Oboe Secondo	*I"Oboe Imo.
*I'[Org]	*	*	*I'[Vl 2]	*I'vl 1	*I'[B]	*	*I'[T]	*	*I'[A]	*	*I'[S]	*	*I'[Timp]	*I'[Clno 2 in E♭]	*I'[Clno 1 in E♭]	*I'[Ob 2]	*I'[Ob 1]
*Iorgan	*	*	*Ivioln	*	*Ibass	*	*Itenor	*	*Ialto	*	*Isoprn	*	*Itimpa	*Itromp	*Itromp	*Ioboe	*Ioboe
*ICklav	*	*	*ICstr	*	*ICvox	*	*ICvox	*	*ICvox	*	*ICvox	*	*ICidio	*ICbras	*ICbras	*ICww	*ICww
*IGcont	*	*	*IGacmp	*	*IGcoro	*	*IGcoro	*	*IGcoro	*	*IGcoro	*	*IGacmp	*IGacmp	*IGacmp	*IGacmp	*IGacmp
*clefF4	*	*	*clefG2	*clefG2	*clefF4	*	*clefC4	*	*clefC3	*	*clefC1	*	*clefF4	*clefG2	*clefG2	*clefG2	*clefG2
*	*	*	*	*	*	*	*	*	*	*	*	*	*	*ITrd-2c-3	*ITrd-2c-3	*	*
*k[f#]	*	*	*k[f#]	*k[f#]	*k[f#]	*	*k[f#]	*	*k[f#]	*	*k[f#]	*	*k[f#]	*k[f#]	*k[f#]	*k[f#]	*k[f#]
*G:	*	*	*G:	*G:	*G:	*	*G:	*	*G:	*	*G:	*	*G:	*G:	*G:	*G:	*G:
*M2/4	*	*	*M2/4	*M2/4	*M2/4	*	*M2/4	*	*M2/4	*	*M2/4	*	*M2/4	*M2/4	*M2/4	*M2/4	*M2/4
*	*	*	*	*	*	*	*8va	*	*	*	*	*	*	*	*	*	*
=1	=1	=1	=1	=1	=1	=1	=1	=1	=1	=1	=1	=1	=1	=1	=1	=1	=1
!	!	!	!	!	!LO:TX:t=P:problem=all\middle&colon; global	!	!	!LO:TX:t=P:problem=all\middle&colon; global	!LO:TX:t=P:problem=all\middle&colon; global	!	!LO:TX:t=P:problem=all\middle&colon; global	!	!	!	!	!	!LO:TX:t=P:problem=all\middle&colon; global
!LO:TX:a:t=Solo	!	!	!	!	!	!	!	!	!	!	!	!	!	!	!	!	!
!LO:TX:a:t=P:problem=partia zapisana jako da capo, przy pierwszym pojawieniu się poprzedzona przedtaktem	!	!	!	!	!	!	!	!	!	!	!	!	!	!	!	!	!
!LO:TX:a:t=Zdrowaś bądź Maria	!	!LO:DY:b:t=piano.	!LO:TX:b:t=Zdrowaś Tacet	!LO:TX:b:t=Zdrowaś Tacet	!	!	!LO:TX:a:t=octava	!	!	!	!	!	!LO:TX:a:t=Mittit ad Virginum Tacet.	!LO:TX:a:t=Reliqua Tacet.	!LO:TX:a:t=Reliqua Tacet.	!	!
4G\	.	p	2ryy	2ryy	4G\	A-	4d/	A-	4B/	A-	4g\	A-	2ryy	2ryy	2ryy	0r	0r
4r	.	.	.	.	8D\L	-men	4d/	-men	8f#\L	-men	8a\L	-men	.	.	.	.	.
.	.	.	.	.	8G\J	.	.	.	8g\J	.	8b\J	.	.	.	.	.	.
=2	=2	=2	=2	=2	=2	=2	=2	=2	=2	=2	=2	=2	=2	=2	=2	=2-	=2-
*	*	*	*	*	*	*ij	*	*ij	*	*ij	*	*ij	*	*	*	*	*
4D\	.	.	2ryy	2ryy	4F#\	A-	4d/	A-	4a\	A-	4cc\	A-	2ryy	2ryy	2ryy	.	.
4r	.	.	.	.	4D\	-men	4d/	-men	4f#\	-men	4a\	-men	.	.	.	.	.
*	*	*	*	*	*	*Xij	*	*Xij	*	*Xij	*	*Xij	*	*	*	*	*
=3	=3	=3	=3	=3	=3	=3	=3	=3	=3	=3	=3	=3	=3	=3	=3	=3-	=3-
8G\	.	.	2ryy	2ryy	4G\	wszy-	8d/L	wszy-	8g\L	wszy-	8b\L	wszy-	2ryy	2ryy	2ryy	.	.
8r	.	.	.	.	.	.	8g/J	.	8b\J	.	8dd\J	.	.	.	.	.	.
8c\L	.	.	.	.	8c\L	-scy	4e/	-scy	8a\L	-scy	8cc\L	-scy	.	.	.	.	.
8c#X\J	.	.	.	.	8c#X\J	.	.	.	8g\J	.	8b\J	.	.	.	.	.	.
=4	=4	=4	=4	=4	=4	=4	=4	=4	=4	=4	=4	=4	=4	=4	=4	=4-	=4-
4d\	.	.	2ryy	2ryy	4d\	rzecz-	4d/	rzecz-	8g\L	rzecz-	8b\L	rzecz-	2ryy	2ryy	2ryy	.	.
.	.	.	.	.	.	.	.	.	8f#\J	.	8a\J	.	.	.	.	.	.
!	!	!	!	!	!	!	!LO:SIC:v:l:s:t=czmy	!	!	!	!	!	!	!	!	!	!
4D/	.	.	.	.	4D/	-my	4d/	-mi	4f#\	-my	4a\	-my	.	.	.	.	.
=5	=5	=5	=5	=5	=5	=5	=5	=5	=5	=5	=5	=5	=5	=5	=5	=5-	=5-
4G\	.	.	2ryy	2ryy	4G\	wier-	4d/	wier-	4B/	wier-	4g\	wier-	2ryy	2ryy	2ryy	1r	1r
4r	.	.	.	.	8D\L	-ni	4d/	-ni	8f#\L	-ni	8a\L	-ni	.	.	.	.	.
.	.	.	.	.	8G\J	.	.	.	8g\J	.	8b\J	.	.	.	.	.	.
=6	=6	=6	=6	=6	=6	=6	=6	=6	=6	=6	=6	=6	=6	=6	=6	=6-	=6-
*	*	*	*	*	*	*ij	*	*ij	*	*ij	*	*ij	*	*	*	*	*
4D\	.	.	2ryy	2ryy	4F#\	wier-	4d/	wier-	4a\	wier-	4cc\	wier-	2ryy	2ryy	2ryy	.	.
4r	.	.	.	.	4D\	-ni	4d/	-ni	4f#\	-ni	4a\	-ni	.	.	.	.	.
*	*	*	*	*	*	*Xij	*	*Xij	*	*Xij	*	*Xij	*	*	*	*	*
=7	=7	=7	=7	=7	=7	=7	=7	=7	=7	=7	=7	=7	=7	=7	=7	=7	=7
!!mixed beam:problem
!LO:TX:a:t=P:problem=mixed beam	!	!	!	!	!LO:SIC:l:s=chrześ	!	!	!	!	!	!LO:SIC:l:s=chrześ	!	!	!	!	!	!
8G\L	.	.	2ryy	2ryy	4G\	Chrzes-	4d/	Chrześ-	4g\	Chrześ-	4b\	Chrzes-	2ryy	2ryy	2ryy	2r	2r
8GG/	.	.	.	.	.	.	.	.	.	.	.	.	.	.	.	.	.
!	!	!	!	!	!LO:SIC:l:s=cija	!	!LO:SIC:l:s=cija	!	!LO:SIC:l:s=cija	!	!LO:SIC:l:s=cija	!	!	!	!	!	!
8D\	.	.	.	.	4D\	-cia-	4d/	-cia-	4d\	-cia-	4a\	-cia-	.	.	.	.	.
8D\J	.	.	.	.	.	.	.	.	.	.	.	.	.	.	.	.	.
!	!	!	!	!	!	!	!	!	!LO:LB:g=original	!	!LO:LB:g=original	!	!	!	!	!	!
=8	=8	=8	=8	=8	=8	=8	=8	=8	=8	=8	=8	=8	=8	=8	=8	=8	=8
!	!	!	!	!	!	!	!	!	!	!	!	!	!	!	!	!LO:TX:b:t=Zdrowas	!LO:TX:b:t=Zdrowas
!	!	!	!	!	!	!	!	!	!	!	!	!	!	!	!	!LO:TX:a:t=Solo	!LO:TX:a:t=Solo.
8G\L	.	.	2ryy	2ryy	4GG/	-nie	4d/	-nie.	4B/	-nie,	4g\	-nie,	2ryy	2ryy	2ryy	4r	4r
16D\L	.	.	.	.	.	.	.	.	.	.	.	.	.	.	.	.	.
16BB\JJ	.	.	.	.	.	.	.	.	.	.	.	.	.	.	.	.	.
!!mixed beam:problem
!LO:TX:a:t=P:problem=mixed beam	!	!	!	!	!	!	!	!	!	!	!	!	!	!	!	!	!
8GG/L	.	.	.	.	4r	.	4r	.	4r	.	4r	.	.	.	.	8r	8r
8G\J	.	.	.	.	.	.	.	.	.	.	.	.	.	.	.	8gg\	8bb\
*	*	*	*	*	*	*	*X8va	*	*	*	*	*	*	*	*	*	*
!	!	!	!	!	!LO:LB:g=original	!	!LO:LB:g=original	!	!	!	!	!	!	!	!	!	!
=9	=9	=9	=9	=9	=9	=9	=9	=9	=9	=9	=9	=9	=9	=9	=9	=9	=9
!	!	!	!	!	!	!	!LO:SIC:l:s=coś	!	!	!	!	!	!	!	!	!	!
!	!	!	!	!	!	!	!LO:TX:a:t=loco.	!	!	!	!LO:SIC:l:s=coś	!	!	!	!	!	!
8F#\L	.	.	2ryy	2ryy	4D\	coś-	4d\	cos-	4f#\	Coś-	4a\	Cos-	2ryy	2ryy	2ryy	4ff#X\	4aa\
8D\	.	.	.	.	.	.	.	.	.	.	.	.	.	.	.	.	.
8G\	.	.	.	.	4D\	-cie	4d\	-cie	4g\	-cie	4b\	-cie	.	.	.	4gg\	4bb\
8D\J	.	.	.	.	.	.	.	.	.	.	.	.	.	.	.	.	.
!	!	!	!	!	!	!	!	!	!	!	!	!	!	!	!	!LO:LB:g=original	!
=10	=10	=10	=10	=10	=10	=10	=10	=10	=10	=10	=10	=10	=10	=10	=10	=10	=10
!	!	!	!	!	!	!	!LO:SIC:l:s=się	!	!	!	!LO:SIC:l:s=się	!	!	!	!	!	!
8F#\L	.	.	2ryy	2ryy	4.D\	Się	4.d\	Sie	4.f#\	Się	4.a\	sie	2ryy	2ryy	2ryy	4ff#X\	4aa\
8D\	.	.	.	.	.	.	.	.	.	.	.	.	.	.	.	.	.
8F#\	.	.	.	.	.	.	.	.	.	.	.	.	.	.	.	8r	8r
8G\J	.	.	.	.	8G\	tu	8d\	tu	8g\	tu	8b\	tu	.	.	.	8gg\	8bb\
=11	=11	=11	=11	=11	=11	=11	=11	=11	=11	=11	=11	=11	=11	=11	=11	=11	=11
*	*	*	*	*	*	*	*2\right	*	*	*	*	*	*	*	*	*	*
4A\	8 6	.	2ryy	2ryy	4A\	Ze-	2A\	Ze-	8f#\L	Ze-	8a\L	Ze-	2ryy	2ryy	2ryy	8ff#\L	8aa\L
.	7 5	.	.	.	.	.	.	.	8e\J	.	8g\J	.	.	.	.	8ee\	8gg\
4AA/	6 4	.	.	.	4AA/	.	.	.	8d\L	.	8f#/L	.	.	.	.	8dd\	8ff#X\
.	5 #	.	.	.	.	.	.	.	8c#X\J	.	8e/J	.	.	.	.	8cc#X\J	8ee\J
!LO:LB:g=original	!	!	!	!	!	!	!	!	!	!	!	!	!	!	!	!	!LO:LB:g=original
=12	=12	=12	=12	=12	=12	=12	=12	=12	=12	=12	=12	=12	=12	=12	=12	=12	=12
!!mixed beam:problem
!LO:TX:a:t=P:problem=mixed beam	!	!	!	!	!	!	!	!	!	!	!	!	!	!	!	!LO:TX:a:t=P:problem=mixed beam	!
8d\L	.	.	2ryy	2ryy	4D\	-szli	4A\	-szli	4d\	-szli	4f#/	-szli	2ryy	2ryy	2ryy	8dd\L	4dd\
8D/J	.	.	.	.	.	.	.	.	.	.	.	.	.	.	.	8f#/J	.
4r	.	.	.	.	4r	.	4r	.	4r	.	4r	.	.	.	.	8r	8r
.	.	.	.	.	.	.	.	.	.	.	.	.	.	.	.	8gg\	8bb\
=13	=13	=13	=13	=13	=13	=13	=13	=13	=13	=13	=13	=13	=13	=13	=13	=13	=13
8F#\L	.	.	2ryy	2ryy	4D\	ku	4d\	ku	4f#\	ku	4a\	ku	2ryy	2ryy	2ryy	4ff#\	4aa\
8D\	.	.	.	.	.	.	.	.	.	.	.	.	.	.	.	.	.
8G\	.	.	.	.	4D\	Chwa-	4d\	Chwa-	4g\	Chwa-	4b\	Chwa-	.	.	.	4gg\	4bb\
8D\J	.	.	.	.	.	.	.	.	.	.	.	.	.	.	.	.	.
=14	=14	=14	=14	=14	=14	=14	=14	=14	=14	=14	=14	=14	=14	=14	=14	=14	=14
8F#\L	.	.	2ryy	2ryy	4.D\	-le	4.d\	-le	4.f#\	-le	4.a\	-le	2ryy	2ryy	2ryy	4ff#\	4aa\
8D\	.	.	.	.	.	.	.	.	.	.	.	.	.	.	.	.	.
8G\	.	.	.	.	.	.	.	.	.	.	.	.	.	.	.	8r	8r
!	!	!	!	!	!LO:SIC:l:s=tej	!	!LO:SIC:l:s=tej	!	!LO:SIC:l:s=tej	!	!LO:SIC:l:s=tej	!	!	!	!	!	!
8D\J	.	.	.	.	8G\	tey	8d\	tey	8g\	tey	8b\	tey	.	.	.	8gg\	8bb\
=15	=15	=15	=15	=15	=15	=15	=15	=15	=15	=15	=15	=15	=15	=15	=15	=15	=15
4A\	6 4	.	2ryy	2ryy	4A\	Pan-	2A\	Pan-	4f#\	Pan-	8a\L	Pan-	2ryy	2ryy	2ryy	4ff#\	8aa\L
.	.	.	.	.	.	.	.	.	.	.	8dd\J	.	.	.	.	.	8ddd\J
4AA/	5 #	.	.	.	4AA/	.	.	.	4e\	.	8dd\L	.	.	.	.	4ee\	8ddd\L
.	.	.	.	.	.	.	.	.	.	.	8cc#X\J	.	.	.	.	.	8ccc#X\J
!	!	!	!	!	!	!	!	!	!LO:LB:g=original	!	!LO:LB:g=original	!	!	!	!	!	!
=16	=16	=16	=16	=16	=16	=16	=16	=16	=16	=16	=16	=16	=16	=16	=16	=16	=16
!!mixed beam:problem
!LO:TX:a:t=P:problem=mixed beam	!	!	!	!	!	!	!	!	!	!	!	!	!	!	!	!	!
8D\L	.	.	2ryy	2ryy	4D\	-nie	4A\	-nie	4f#\	-nie.	4dd\	-nie,	2ryy	2ryy	2ryy	4ff#\	4ddd\
8AA/	.	.	.	.	.	.	.	.	.	.	.	.	.	.	.	.	.
8DD/J	.	.	.	.	4r	.	4r	.	4r	.	4r	.	.	.	.	4r	4r
8r	.	.	.	.	.	.	.	.	.	.	.	.	.	.	.	.	.
!	!	!	!	!	!LO:LB:g=original	!	!LO:LB:g=original	!	!	!	!	!	!	!	!	!	!
=17	=17	=17	=17	=17	=17	=17	=17	=17	=17	=17	=17	=17	=17	=17	=17	=17	=17
*	*	*	*	*	*	*	*8va	*	*	*	*	*	*	*	*	*	*
!	!	!	!	!	!	!	!LO:TX:a:t=octava.	!	!	!	!	!	!	!	!	!	!
4G\	.	.	2ryy	2ryy	8G\	Za-	8d/	Za-	8B/	Za-	8g\	Za-	2ryy	2ryy	2ryy	0r	0r
.	.	.	.	.	8G\	-cho-	8d/	-cho-	8B/	-cho-	8g\	-cho-	.	.	.	.	.
!	!	!	!	!	!LO:SIC:l:s=waj	!	!LO:SIC:l:s=waj	!	!LO:SIC:l:s=waj	!	!LO:SIC:l:s=waj	!	!	!	!	!	!
4r	.	.	.	.	8D\L	-way	4d/	-way	8f#\L	-way	8a\L	-way	.	.	.	.	.
.	.	.	.	.	8G\J	.	.	.	8g\J	.	8b\J	.	.	.	.	.	.
=18	=18	=18	=18	=18	=18	=18	=18	=18	=18	=18	=18	=18	=18	=18	=18	=18	=18-
4D\	.	.	2ryy	2ryy	4F#\	nas	4d/	nas	4a\	nas	4cc\	nas	2ryy	2ryy	2ryy	.	.
4r	.	.	.	.	4D\	od	4d/	od	4f#\	od	4a\	od	.	.	.	.	.
=19	=19	=19	=19	=19	=19	=19	=19	=19	=19	=19	=19	=19	=19	=19	=19	=19-	=19-
!	!	!	!	!	!LO:SIC:l:s=złe	!	!LO:SIC:l:s=złe	!	!LO:SIC:l:s=złe	!	!	!	!	!	!	!	!
8G\	.	.	2ryy	2ryy	4G\	Zle-	8d/L	Zle-	8g\L	Zle-	8b\L	Złe-	2ryy	2ryy	2ryy	.	.
8r	.	.	.	.	.	.	8g/J	.	8b\J	.	8dd\J	.	.	.	.	.	.
8c\L	.	.	.	.	8c\L	.	4e/	.	8a\L	.	8cc\L	.	.	.	.	.	.
8c#X\J	.	.	.	.	8c#X\J	.	.	.	8g\J	.	8b\J	.	.	.	.	.	.
=20	=20	=20	=20	=20	=20	=20	=20	=20	=20	=20	=20	=20	=20	=20	=20	=20-	=20-
4d\	.	.	2ryy	2ryy	4d\	.	2d/	-go	8g\L	.	8b\L	.	2ryy	2ryy	2ryy	.	.
.	.	.	.	.	.	.	.	.	8f#\J	.	8a\J	.	.	.	.	.	.
4D/	.	.	.	.	4D\	-go	.	.	4f#\	-go	4a\	-go	.	.	.	.	.
=21	=21	=21	=21	=21	=21	=21	=21	=21	=21	=21	=21	=21	=21	=21	=21	=21-	=21-
4G\	.	.	2ryy	2ryy	4G\	Swo-	4d/	Swo-	4B/	Swo-	4g\	Swo-	2ryy	2ryy	2ryy	0r	0r
!	!	!	!	!	!	!	!LO:SIC:l:s=i	!	!LO:SIC:l:s=i	!	!LO:SIC:l:s=i	!	!	!	!	!	!
4r	.	.	.	.	8D\L	.	4d/	-je-	8f#\L	-je-	8a\L	-je-	.	.	.	.	.
.	.	.	.	.	8G\J	.	.	.	8g\J	.	8b\J	.	.	.	.	.	.
=22	=22	=22	=22	=22	=22	=22	=22	=22	=22	=22	=22	=22	=22	=22	=22	=22-	=22-
!	!	!	!	!	!LO:SIC:l:s=i	!	!	!	!	!	!	!	!	!	!	!	!
4D\	.	.	2ryy	2ryy	4F#\	-je-	2d/	-mi	4a\	-mi	4cc\	-mi	2ryy	2ryy	2ryy	.	.
4r	.	.	.	.	4D\	-mi	.	.	4f#\	pros-	4a\	pros-	.	.	.	.	.
!	!	!	!	!	!LO:LB:g=original	!	!	!	!	!	!	!	!	!	!	!	!
=23	=23	=23	=23	=23	=23	=23	=23	=23	=23	=23	=23	=23	=23	=23	=23	=23-	=23-
!	!	!	!	!	!	!	!	!	!LO:SIC:l:s=śba	!	!LO:SIC:l:s=śba	!	!	!	!	!	!
4G\	.	.	2ryy	2ryy	4G\	pros-	4d/	pros-	4g\	-ba-	4b\	-ba-	2ryy	2ryy	2ryy	.	.
!	!	!	!	!	!LO:SIC:l:s=śba	!	!LO:SIC:l:s=śba	!	!	!	!	!	!	!	!	!	!
4D\	.	.	.	.	4D\	-ba-	4d/	-ba-	4d\	.	4a\	.	.	.	.	.	.
=24	=24	=24	=24	=24	=24	=24	=24	=24	=24	=24	=24	=24	=24	=24	=24	=24-	=24-
8G\L	.	.	2ryy	2ryy	4GG/	-mi.	4d/	-mi	4B/	-mi	4g\	-mi.	2ryy	2ryy	2ryy	.	.
8D\J	.	.	.	.	.	.	.	.	.	.	.	.	.	.	.	.	.
4GG/	.	.	.	.	4r	.	4r	.	4r	.	4r	.	.	.	.	.	.
*	*	*	*	*	*	*	*X8va	*	*	*	*	*	*	*	*	*	*
!LO:LB:g=original	!	!	!	!	!	!	!	!	!	!	!LO:LB:g=original	!	!	!	!	!	!
=25||	=25||	=25||	=25||	=25||	=25||	=25||	=25||	=25||	=25||	=25||	=25||	=25||	=25||	=25||	=25||	=25||	=25||
!LO:TX:b:t=Amen.	!	!	!LO:TX:b:t=Amen.	!LO:TX:b:t=Amen.	!	!	!LO:TX:a:t=loco.	!	!	!	!	!	!	!	!	!LO:TX:b:t=Amen	!LO:TX:b:t=Amen.
0c	.	.	0g	0ee	0c	A-	0c	A-	0g	A-	0ee	A-	0ryy	0ryy	0ryy	0cc	0ee
=26	=26	=26	=26	=26	=26	=26	=26	=26	=26	=26	=26	=26	=26	=26	=26	=26	=26
!	!	!	!	!	!	!	!	!	!	!	!	!	!	!	!	!LO:TX:b:t=finis.	!
0G	.	.	0g	0dd	0G	-men.	0B	-men.	0g	-men.	0dd	-men.	0ryy	0ryy	0ryy	0b	0dd
==	==	==	==	==	==	==	==	==	==	==	==	==	==	==	==	==	==
*-	*-	*-	*-	*-	*-	*-	*-	*-	*-	*-	*-	*-	*-	*-	*-	*-	*-
!!!system-decoration: [(g1)][(g2)][(g3)][(g4)][(g5)][(g6)]
!!!RDF**kern: > = above
!!!RDF**kern: < = below
!!!ENC: Kamil Watkowski
!!!END: 2020-09-09
!!!EED: Jędrzej Mróz
!!!EEV: 2022-01-27
!!!YEC: Copyright 2022 Narodowy Instytut Fryderyka Chopina (https://polishscores.org)
!!!YEM: License CC-BY-4.0 (https://creativecommons.org/licenses/by/4.0)
